common/svg/status-new-icon.svg

<svg fill="none" height="20" viewBox="0 0 20 20" width="20" xmlns="http://www.w3.org/2000/svg"><g clip-rule="evenodd" fill="#000" fill-rule="evenodd"><path d="m0 10c0-5.5 4.5-10 10-10s10 4.5 10 10-4.5 10-10 10-10-4.5-10-10zm4 0c0-3.3 2.7-6 6-6s6 2.7 6 6-2.7 6-6 6-6-2.7-6-6z"/><path d="m10 6c-2.2 0-4 1.8-4 4s1.8 4 4 4 4-1.8 4-4-1.8-4-4-4z"/></g></svg>

<svg width="20" height="20" viewBox="0 0 20 20" fill="none" xmlns="http://www.w3.org/2000/svg">
<path fill-rule="evenodd" clip-rule="evenodd" d="M0 10C0 4.5 4.5 0 10 0C15.5 0 20 4.5 20 10C20 15.5 15.5 20 10 20C4.5 20 0 15.5 0 10ZM4 10C4 6.7 6.7 4 10 4C13.3 4 16 6.7 16 10C16 13.3 13.3 16 10 16C6.7 16 4 13.3 4 10Z" fill="black"/>
<path fill-rule="evenodd" clip-rule="evenodd" d="M10 6C7.8 6 6 7.8 6 10C6 12.2 7.8 14 10 14C12.2 14 14 12.2 14 10C14 7.8 12.2 6 10 6Z" fill="black"/>
</svg>
